flaticon/business/folder.svg

<svg xmlns="http://www.w3.org/2000/svg" width="32" height="32" viewBox="0 0 24 24">
    <path d="M 16.285156 0 L 0 0 L 0 24 L 24 24 L 24 0 Z M 23.144531 0.855469 L 23.144531 19.285156 L 16.285156 19.285156 L 16.285156 0.855469 Z M 15.429688 0.855469 L 15.429688 19.285156 L 8.570312 19.285156 L 8.570312 0.855469 Z M 7.714844 0.855469 L 7.714844 19.285156 L 0.855469 19.285156 L 0.855469 0.855469 Z M 0.855469 23.144531 L 0.855469 20.144531 L 7.714844 20.144531 L 7.714844 23.144531 Z M 8.570312 23.144531 L 8.570312 20.144531 L 15.429688 20.144531 L 15.429688 23.144531 Z M 16.285156 23.144531 L 16.285156 20.144531 L 23.144531 20.144531 L 23.144531 23.144531 Z M 16.285156 23.144531"/>
    <path d="M6.855469 13.285156L1.714844 13.285156 1.714844 18.429688 6.855469 18.429688zM6 17.570312L2.570312 17.570312 2.570312 14.144531 6 14.144531zM14.570312 13.285156L9.429688 13.285156 9.429688 18.429688 14.570312 18.429688zM13.714844 17.570312L10.285156 17.570312 10.285156 14.144531 13.714844 14.144531zM22.285156 13.285156L17.144531 13.285156 17.144531 18.429688 22.285156 18.429688zM21.429688 17.570312L18 17.570312 18 14.144531 21.429688 14.144531zM21.429688 17.570312"/>
</svg>

<svg xmlns="http://www.w3.org/2000/svg" width="32" height="32" viewBox="0 0 24 24">
    <path d="M16.285 0H0v24h24V0zm6.86.855v18.43h-6.86V.855zm-7.715 0v18.43H8.57V.855zm-7.715 0v18.43H.855V.855zm-6.86 22.29v-3h6.86v3zm7.715 0v-3h6.86v3zm7.715 0v-3h6.86v3zm0 0"/>
    <path d="M6.855 13.285h-5.14v5.145h5.14zM6 17.57H2.57v-3.425H6zm0 0M14.57 13.285H9.43v5.145h5.14zm-.855 4.285h-3.43v-3.425h3.43zm0 0M22.285 13.285h-5.14v5.145h5.14zm-.855 4.285H18v-3.425h3.43zm0 0"/>
</svg>
